X: 27946
T: Mountains Of Mourne, The
R: waltz
M: 3/4
K: Dmajor
B2|A2 f3 f|f2 e2 d2|e2 d3 B|B4 B2|
B2 A3 A|A2 B2 c2|e2 d3 d|d4 A2|
A2 f3 f|f2 e2 d2|e2 d3 B|B4 B2|
B2 A3 A|A2 B2 c2|e2 d3 d|d4 AA||
A2 g3 g|g2 a2 g2|g2 f3 e|f4 AA|
A2 d2 f2|a2 g2 f2|f2 e3 d|e4 AA|
A2 f3 f|f2 e2 d2|e2 d3 B|B4 BB|
B2 A2 A2|A2 B2 c2|e2 d3 d|d4||

